www/assets/icons/auto_awesome_motion.svg

<svg width="24" height="24" viewBox="0 0 24 24" xmlns="http://www.w3.org/2000/svg" fill='currentColor'><path d="M14 2H4C2.89 2 2 2.9 2 4V14H4V4H14V2ZM18 6H8C6.89 6 6 6.9 6 8V18H8V8H18V6ZM20 10H12C10.89 10 10 10.9 10 12V20C10 21.1 10.89 22 12 22H20C21.1 22 22 21.1 22 20V12C22 10.9 21.1 10 20 10Z"/></svg>

<svg xmlns="http://www.w3.org/2000/svg" width="24" height="24" viewBox="0 0 24 24" fill='currentColor'><path d="M14 2H4a2 2 0 0 0-2 2v10h2V4h10zm4 4H8a2 2 0 0 0-2 2v10h2V8h10zm2 4h-8a2 2 0 0 0-2 2v8a2 2 0 0 0 2 2h8c1.1 0 2-.9 2-2v-8c0-1.1-.9-2-2-2"/></svg>
